src/assets/images/mouth/26.svg

<svg width="32" height="32" viewBox="0 0 32 32" fill="none" xmlns="http://www.w3.org/2000/svg">
<path d="M11.62 21.5H18.1L19.72 24.4028V31.1074L11.6199 29L11.62 21.5Z" fill="url(#paint0_radial_951_440)"/>
<path d="M16 25C9 25 9 18 9 18H23C23 18 23 25 16 25Z" fill="url(#paint1_radial_951_440)"/>
<path fill-rule="evenodd" clip-rule="evenodd" d="M10.1505 22C11.1004 23.5684 12.8344 25 16 25C19.1657 25 20.8997 23.5684 21.8496 22L10.1505 22Z" fill="url(#paint2_linear_951_440)"/>
<path fill-rule="evenodd" clip-rule="evenodd" d="M10.1505 22C11.1004 23.5684 12.8344 25 16 25C19.1657 25 20.8997 23.5684 21.8496 22L10.1505 22Z" fill="url(#paint3_radial_951_440)"/>
<path fill-rule="evenodd" clip-rule="evenodd" d="M16 23.5V25.25C16 25.6642 16.3358 26 16.75 26H16.8333C17.2015 26 17.5 26.2985 17.5 26.6667V26.75C17.5 27.4404 18.0596 28 18.75 28C19.4404 28 20 27.4404 20 26.75V23.9372C20.8204 23.4017 21.4165 22.7151 21.8496 22H20H19H17.5C16.6716 22 16 22.6716 16 23.5Z" fill="url(#paint4_radial_951_440)"/>
<defs>
<radialGradient id="paint0_radial_951_440" cx="0" cy="0" r="1" gradientUnits="userSpaceOnUse" gradientTransform="translate(19.72 21.5) rotate(128.191) scale(7.63403 5.15729)">
<stop stop-color="#C20AA5"/>
<stop offset="1" stop-color="#C20A78" stop-opacity="0"/>
</radialGradient>
<radialGradient id="paint1_radial_951_440" cx="0" cy="0" r="1" gradientUnits="userSpaceOnUse" gradientTransform="translate(16 25.5) rotate(-90) scale(7.5 15)">
<stop stop-color="#F70A8D"/>
<stop offset="1" stop-color="#89029C"/>
</radialGradient>
<linearGradient id="paint2_linear_951_440" x1="16" y1="22" x2="16" y2="25" gradientUnits="userSpaceOnUse">
<stop stop-color="#2962F3"/>
<stop offset="0.160122" stop-color="#3E7AFF"/>
<stop offset="0.253876" stop-color="#4588FF"/>
<stop offset="0.535137" stop-color="#4170FF"/>
<stop offset="1" stop-color="#3E69FF"/>
</linearGradient>
<radialGradient id="paint3_radial_951_440" cx="0" cy="0" r="1" gradientUnits="userSpaceOnUse" gradientTransform="translate(16 23.5) rotate(90) scale(3 1.74841)">
<stop stop-color="#323FFF"/>
<stop offset="1" stop-color="#323FFF" stop-opacity="0"/>
</radialGradient>
<radialGradient id="paint4_radial_951_440" cx="0" cy="0" r="1" gradientUnits="userSpaceOnUse" gradientTransform="translate(23.5 26) rotate(-172.405) scale(7.56637 7.8168)">
<stop offset="0.408311" stop-color="#325CFF"/>
<stop offset="0.574014" stop-color="#4889FF"/>
<stop offset="0.739718" stop-color="#3C6BF7"/>
<stop offset="0.899655" stop-color="#3F72FF"/>
<stop offset="1" stop-color="#3156FE"/>
</radialGradient>
</defs>
</svg>

<svg width="32" height="32" fill="none" xmlns="http://www.w3.org/2000/svg"><path d="M11.62 21.5h6.48l1.62 2.903v6.704L11.62 29v-7.5z" fill="url(#a)"/><path d="M16 25c-7 0-7-7-7-7h14s0 7-7 7z" fill="url(#b)"/><path fill-rule="evenodd" clip-rule="evenodd" d="M10.15 22c.95 1.568 2.684 3 5.85 3 3.166 0 4.9-1.432 5.85-3h-11.7z" fill="url(#c)"/><path fill-rule="evenodd" clip-rule="evenodd" d="M10.15 22c.95 1.568 2.684 3 5.85 3 3.166 0 4.9-1.432 5.85-3h-11.7z" fill="url(#d)"/><path fill-rule="evenodd" clip-rule="evenodd" d="M16 23.5v1.75c0 .414.336.75.75.75h.083c.369 0 .667.299.667.667v.083a1.25 1.25 0 1 0 2.5 0v-2.813A5.984 5.984 0 0 0 21.85 22H17.5a1.5 1.5 0 0 0-1.5 1.5z" fill="url(#e)"/><defs><radialGradient id="a" cx="0" cy="0" r="1" gradientUnits="userSpaceOnUse" gradientTransform="matrix(-4.72 6 -4.0534 -3.18867 19.72 21.5)"><stop stop-color="#C20AA5"/><stop offset="1" stop-color="#C20A78" stop-opacity="0"/></radialGradient><radialGradient id="b" cx="0" cy="0" r="1" gradientUnits="userSpaceOnUse" gradientTransform="matrix(0 -7.5 15 0 16 25.5)"><stop stop-color="#F70A8D"/><stop offset="1" stop-color="#89029C"/></radialGradient><radialGradient id="d" cx="0" cy="0" r="1" gradientUnits="userSpaceOnUse" gradientTransform="matrix(0 3 -1.74841 0 16 23.5)"><stop stop-color="#323FFF"/><stop offset="1" stop-color="#323FFF" stop-opacity="0"/></radialGradient><radialGradient id="e" cx="0" cy="0" r="1" gradientUnits="userSpaceOnUse" gradientTransform="matrix(-7.5 -1.00005 1.03315 -7.74822 23.5 26)"><stop offset=".408" stop-color="#325CFF"/><stop offset=".574" stop-color="#4889FF"/><stop offset=".74" stop-color="#3C6BF7"/><stop offset=".9" stop-color="#3F72FF"/><stop offset="1" stop-color="#3156FE"/></radialGradient><linearGradient id="c" x1="16" y1="22" x2="16" y2="25" gradientUnits="userSpaceOnUse"><stop stop-color="#2962F3"/><stop offset=".16" stop-color="#3E7AFF"/><stop offset=".254" stop-color="#4588FF"/><stop offset=".535" stop-color="#4170FF"/><stop offset="1" stop-color="#3E69FF"/></linearGradient></defs></svg>
